Sources/FrostedUI/Resources/Icons.xcassets/infoCircle12.imageset/info-circle-12.svg

<svg width="12" height="12" viewBox="0 0 12 12" fill="none" xmlns="http://www.w3.org/2000/svg" data-fui-icon="true">
  <path
    d="M6 0C9.31371 0 12 2.68629 12 6C12 9.31371 9.31371 12 6 12C2.68629 12 0 9.31371 0 6C0 2.68629 2.68629 0 6 0ZM6 1.5C3.51472 1.5 1.5 3.51472 1.5 6C1.5 8.48528 3.51472 10.5 6 10.5C8.48528 10.5 10.5 8.48528 10.5 6C10.5 3.51472 8.48528 1.5 6 1.5ZM6 4.5C6.41421 4.5 6.75 4.83579 6.75 5.25V7.5H7.25C7.66417 7.50005 8 7.83582 8 8.25C7.99993 8.66412 7.66413 8.99995 7.25 9H4.75C4.33583 9 4.00007 8.66416 4 8.25C4 7.83579 4.33579 7.5 4.75 7.5H5.25V6H4.75C4.33579 6 4 5.66421 4 5.25C4 4.83579 4.33579 4.5 4.75 4.5H6ZM5.75 2.50391C6.16417 2.50391 6.49993 2.83975 6.5 3.25391C6.5 3.66812 6.16421 4.00391 5.75 4.00391C5.33579 4.00391 5 3.66812 5 3.25391C5.00007 2.83975 5.33583 2.50391 5.75 2.50391Z"
    fill="currentColor"
  />
</svg>

<svg xmlns="http://www.w3.org/2000/svg" width="12" height="12" fill="none" data-fui-icon="true" viewBox="0 0 12 12"><path fill="currentColor" d="M6 0a6 6 0 1 1 0 12A6 6 0 0 1 6 0m0 1.5a4.5 4.5 0 1 0 0 9 4.5 4.5 0 0 0 0-9m0 3a.75.75 0 0 1 .75.75V7.5h.5a.75.75 0 0 1 0 1.5h-2.5a.75.75 0 0 1 0-1.5h.5V6h-.5a.75.75 0 0 1 0-1.5zm-.25-1.996a.75.75 0 1 1 0 1.5.75.75 0 0 1 0-1.5"/></svg>
